X: 48
T:Golden Wedding (#244), The
M:4/4
L:1/8
S:Capt. F. O'Neill
R:Reel
K:G
c|:BAFG AD (3DDD|BAFG A2 Ac|BAFG AD (3DDD|1ABde "tr"f2 ed:|2ABde fd d2||
fdfg abag|fdfa be e2|fdfg abaf|efge fd d2|
fdfg abag|fdfa be e2|agfe d^cBc|ABde fd d2||

